packages/icons/svg/Outline/book-open.svg

<svg width="24" height="24" viewBox="0 0 24 24" fill="none" xmlns="http://www.w3.org/2000/svg">
<g id="Icon/Outline/book-open">
<path id="Mask" fill-rule="evenodd" clip-rule="evenodd" d="M19 16.4023L13 17.7503V7.5973L19 6.2503V16.4023ZM5 6.2503L11 7.5973V17.7503L5 16.4023V6.2503ZM20.625 4.2183C20.387 4.0293 20.077 3.9573 19.78 4.0243L12 5.7723L4.22 4.0243C3.922 3.9563 3.613 4.0293 3.375 4.2183C3.138 4.4093 3 4.6963 3 5.0003V17.2023C3 17.6703 3.324 18.0753 3.78 18.1773L11.78 19.9753C11.854 19.9923 11.927 20.0003 12 20.0003C12.073 20.0003 12.146 19.9923 12.22 19.9753L20.22 18.1773C20.676 18.0753 21 17.6703 21 17.2023V5.0003C21 4.6963 20.862 4.4093 20.625 4.2183Z" fill="#000000"/>
</g>
</svg>

<svg fill="none" height="24" viewBox="0 0 24 24" width="24" xmlns="http://www.w3.org/2000/svg"><path clip-rule="evenodd" d="m19 16.4025-6 1.348v-10.153l6-1.347zm-13.99998-10.152 5.99998 1.347v10.153l-5.99998-1.348zm15.62498-2.03203c-.238-.189-.548-.261-.845-.194l-7.78 1.748-7.78-1.748c-.298-.068-.607.005-.845.194-.237.191-.375.478-.375.782v12.20203c0 .468.324.873.78.975l8 1.798c.074.017.147.025.22.025s.146-.008.22-.025l8-1.798c.456-.102.78-.507.78-.975v-12.20203c0-.304-.138-.591-.375-.782z" fill="#6b7280" fill-rule="evenodd"/></svg>
